svg/color/altbull.svg

<?xml version="1.0" encoding="UTF-8" ?>
<!DOCTYPE svg PUBLIC "-//W3C//DTD SVG 1.1//EN" "http://www.w3.org/Graphics/SVG/1.1/DTD/svg11.dtd">
<svg width="250pt" height="214pt" viewBox="0 0 250 214" version="1.1" xmlns="http://www.w3.org/2000/svg">
<g id="#ffffffff">
<path fill="#ffffff" opacity="1.00" d=" M 0.00 0.00 L 250.00 0.00 L 250.00 214.00 L 0.00 214.00 L 0.00 0.00 M 73.44 12.50 C 71.99 20.57 73.16 28.84 72.84 37.00 C 73.15 45.83 72.07 54.75 73.34 63.51 C 76.85 65.50 81.16 64.48 85.01 64.69 C 128.34 64.52 171.67 64.67 215.00 64.62 C 220.61 64.48 226.38 65.38 231.86 63.85 C 233.06 59.68 232.60 55.28 232.62 51.00 C 232.32 37.92 233.03 24.83 232.25 11.77 C 226.50 11.62 220.75 11.20 215.00 11.49 C 169.65 11.45 124.29 11.57 78.94 11.42 C 77.07 11.48 75.12 11.57 73.44 12.50 M 11.49 82.69 C 11.56 99.58 11.54 116.46 11.50 133.34 C 28.52 133.64 45.56 133.63 62.58 133.35 C 62.49 116.47 62.50 99.58 62.58 82.70 C 45.55 82.51 28.51 82.52 11.49 82.69 M 73.64 82.66 C 73.58 99.57 73.55 116.49 73.65 133.40 C 111.31 133.60 148.97 133.59 186.63 133.41 C 186.53 116.51 186.58 99.61 186.60 82.71 C 148.95 82.47 111.29 82.57 73.64 82.66 M 73.91 152.37 C 73.00 163.23 73.68 174.12 73.49 185.00 C 73.64 190.94 72.76 197.01 74.13 202.86 C 77.65 203.88 81.37 203.70 84.99 203.72 C 98.17 203.46 111.36 203.89 124.53 203.48 C 124.88 186.49 124.82 169.48 124.58 152.48 C 107.69 152.27 90.80 152.47 73.91 152.37 Z" />
</g>
<g id="#abebf4ff">
<path fill="#abebf4" opacity="1.00" d=" M 73.44 12.50 C 75.12 11.57 77.07 11.48 78.94 11.42 C 124.29 11.57 169.65 11.45 215.00 11.49 C 220.75 11.20 226.50 11.62 232.25 11.77 C 233.03 24.83 232.32 37.92 232.62 51.00 C 232.60 55.28 233.06 59.68 231.86 63.85 C 226.38 65.38 220.61 64.48 215.00 64.62 C 171.67 64.67 128.34 64.52 85.01 64.69 C 81.16 64.48 76.85 65.50 73.34 63.51 C 72.07 54.75 73.15 45.83 72.84 37.00 C 73.16 28.84 71.99 20.57 73.44 12.50 M 74.36 13.55 C 74.42 30.12 74.27 46.69 74.44 63.26 C 126.50 63.31 178.55 63.39 230.61 63.22 C 230.65 46.68 230.54 30.13 230.67 13.58 C 178.57 13.44 126.46 13.50 74.36 13.55 Z" />
<path fill="#abebf4" opacity="1.00" d=" M 73.91 152.37 C 90.80 152.47 107.69 152.27 124.58 152.48 C 124.82 169.48 124.88 186.49 124.53 203.48 C 111.36 203.89 98.17 203.46 84.99 203.72 C 81.37 203.70 77.65 203.88 74.13 202.86 C 72.76 197.01 73.64 190.94 73.49 185.00 C 73.68 174.12 73.00 163.23 73.91 152.37 Z" />
</g>
<g id="#02a5c2ff">
<path fill="#02a5c2" opacity="1.00" d=" M 74.36 13.55 C 126.46 13.50 178.57 13.44 230.67 13.58 C 230.54 30.13 230.65 46.68 230.61 63.22 C 178.55 63.39 126.50 63.31 74.44 63.26 C 74.27 46.69 74.42 30.12 74.36 13.55 Z" />
</g>
<g id="#5fcadeff">
<path fill="#5fcade" opacity="1.00" d=" M 11.49 82.69 C 28.51 82.52 45.55 82.51 62.58 82.70 C 62.50 99.58 62.49 116.47 62.58 133.35 C 45.56 133.63 28.52 133.64 11.50 133.34 C 11.54 116.46 11.56 99.58 11.49 82.69 Z" />
<path fill="#5fcade" opacity="1.00" d=" M 73.64 82.66 C 111.29 82.57 148.95 82.47 186.60 82.71 C 186.58 99.61 186.53 116.51 186.63 133.41 C 148.97 133.59 111.31 133.60 73.65 133.40 C 73.55 116.49 73.58 99.57 73.64 82.66 Z" />
</g>
</svg>

<?xml version="1.0" encoding="utf-8"?>
<!-- Generator: Adobe Illustrator 26.0.3, SVG Export Plug-In . SVG Version: 6.00 Build 0)  -->
<svg version="1.1" id="Layer_1" xmlns="http://www.w3.org/2000/svg" xmlns:xlink="http://www.w3.org/1999/xlink" x="0px" y="0px"
	 viewBox="0 0 250 214" style="enable-background:new 0 0 250 214;" xml:space="preserve">
<style type="text/css">
	.st0{fill:#ABEBF4;}
	.st1{fill:#02A5C2;}
	.st2{fill:#5FCADE;}
</style>
<g id="_x23_abebf4ff">
	<path class="st0" d="M73.4,12.5c1.7-0.9,3.6-1,5.5-1.1c45.3,0.1,90.7,0,136.1,0.1c5.8-0.3,11.5,0.1,17.2,0.3
		c0.8,13.1,0.1,26.1,0.4,39.2c0,4.3,0.4,8.7-0.8,12.8c-5.5,1.5-11.2,0.6-16.9,0.8c-43.3,0-86.7-0.1-130,0.1
		c-3.8-0.2-8.2,0.8-11.7-1.2c-1.3-8.8-0.2-17.7-0.5-26.5C73.2,28.8,72,20.6,73.4,12.5 M74.4,13.6c0.1,16.6-0.1,33.1,0.1,49.7
		c52.1,0.1,104.1,0.1,156.2,0c0-16.5-0.1-33.1,0.1-49.6C178.6,13.4,126.5,13.5,74.4,13.6z"/>
	<path class="st0" d="M73.9,152.4c16.9,0.1,33.8-0.1,50.7,0.1c0.2,17,0.3,34-0.1,51c-13.2,0.4-26.4,0-39.5,0.2
		c-3.6,0-7.3,0.2-10.9-0.9c-1.4-5.9-0.5-11.9-0.6-17.9C73.7,174.1,73,163.2,73.9,152.4z"/>
</g>
<g id="_x23_02a5c2ff">
	<path class="st1" d="M74.4,13.6c52.1-0.1,104.2-0.1,156.3,0c-0.1,16.5,0,33.1-0.1,49.6c-52.1,0.2-104.1,0.1-156.2,0
		C74.3,46.7,74.4,30.1,74.4,13.6z"/>
</g>
<g id="_x23_5fcadeff">
	<path class="st2" d="M11.5,82.7c17-0.2,34.1-0.2,51.1,0c-0.1,16.9-0.1,33.8,0,50.7c-17,0.3-34.1,0.3-51.1,0
		C11.5,116.5,11.6,99.6,11.5,82.7z"/>
	<path class="st2" d="M73.6,82.7c37.7-0.1,75.3-0.2,113,0c0,16.9-0.1,33.8,0,50.7c-37.7,0.2-75.3,0.2-113,0
		C73.6,116.5,73.6,99.6,73.6,82.7z"/>
</g>
</svg>
